X:1
T:Title
%%score { ( 1 3 ) | ( 2 4 ) }
L:1/8
M:4/4
K:Bb
V:1 treble nm="Grand Piano"
V:3 treble 
V:2 bass 
V:4 bass 
V:1
 z4 z2[Q:1/4=82] D>[CE] | [DF][DF][EG][CA] [DB][Ec] [Fd]>[DB] | [EG]4 [DF]2 [Dc]>[DB] | %3
 AGAB cd e>d | c6 d>c | [DB][CA][DB][Ec] [Fd][DB] [Ge]>[Ge] | [Ge]4 [Fd]2 [Ec]>[DB] | AGFG AB c>d | %8
[M:3/4] [DB]6 |] %9
V:2
 z4 z2 [B,,B,]>[B,,B,] | [B,,B,][B,,B,][B,,B,][B,,B,] [B,,B,]2 [B,,B,]>[B,,B,] | %2
 E,4 B,,2 [B,,B,]>[B,,B,] | [F,CE][F,B,E][F,CE][F,B,D] [F,F]-[F,B,F] [F,CF]>[F,B,F] | %4
 [F,A,F]6 [F,A,F]>[F,A,E] | [B,,B,][B,,B,][B,,B,][B,,B,] [B,,B,]2 [B,,B,]>[C,B,] | %6
 [B,,B,]6 [B,,B,]>[B,,B,] | z4 .C2 z2 |[M:3/4] [B,,B,]6 |] %9
V:3
 x8 | x8 | B,6 z2 | x8 | x8 | x8 | x8 | x8 |[M:3/4] x6 |] %9
V:4
 x8 | x8 | x8 | z4 .A,2 z2 | x8 | x8 | x8 | %7
 [F,CE][F,B,E][F,A,E][F,B,E] [F,E]-[F,B,E] [F,A,E]>[F,A,F] |[M:3/4] x6 |] %9

